X: 31373
T: COTILLION No. 27. CONCORD SETT tune 6
C:
%R: jig
B: Elias Howe "The Musician's Companion" Part 3 1844 p.137 #3
S: http://imslp.org/wiki/The_Musician's_Companion_(Howe,_Elias)
Z: 2015 John Chambers <jc:trillian.mit.edu>
M: 6/8
L: 1/8
K: G
% - - - - - - - - - - - - - - - - - - - - - - - - - - - - -
G |\
cBc edc | ABc GAB | cBc edc | Bdg g2G |\
cBc edc | ABc GAB | ceg fdB | d3 c2 H|]
d |\
ded cBA | GBd g2g | ^fef def | gba g2G |\
ded cBA | GBd g2g | a2^f d2f | g3 "^D.C."g2 |]
% - - - - - - - - - - Dance description - - - - - - - - - -
%%begintext align
%% Ladies all balance to the right,
%% all promenade,
%% gentlemen the same.
%%endtext
% - - - - - - - - - - - - - - - - - - - - - - - - - - - - -
%%sep 1 1 300
